X:2
T:Ranveigsvals
Z:taught by Dag Stian Baltzersen, at Pinewoods FAC, 2008
M:3/4
L:1/8
K:G
D2
|: {D}G2 (GD) GA | B4 (AG) | {G}A2 (AB) AG | {G}E4 (DE)
| {E}G2 (GD) GA | B4 d2 | (f2 ~fe) (de) | (~fe) (dc) BA
| B2 (d3 B) | {G}A4 G2 | {G}E2 (EG) ED | {D}E4 (DE)
| {E}G2 (GD) GA | {Bd}B4 d2 | {Bd}B4 ((3ABA) | G2 (GA) GF |[1 G4 D2 :|[2 G4 d2 |
|: (f2 ~fe) (de) | c2 (d2 e2) | ({de}d3 B) (AB) | {G}A4 G2
| {G}E3 F G2 | (uD4 B2) | {B}d4 d2 | (~fe) (dc) BA
| B2 (d3 B) | {G}A4 G2 | {G}E2 (EG) ED | {D}E4 (DE)
| {E}G2 (GD) GA | {Bd}B4 d2 | {Bd}B4 ((3ABA) | G2 (GA) GF |[1 G4 d2 :|[2 G4 z2 ||
